icons/raster-function-template-play-16.svg

<?xml version="1.0" encoding="UTF-8"?><svg id="icons" xmlns="http://www.w3.org/2000/svg" viewBox="0 0 16 16"><defs><style>.cls-1{fill:none;}.cls-1,.cls-2{stroke-width:0px;}</style></defs><rect class="cls-1" width="16" height="16"/><path class="cls-2" d="m1.61237,4H.53664l.17314-.98716h1.07635l.15057-.92681C2.10409.88306,2.64351.02832,3.97246.02832c.21127,0,.46574.04264.61186.12661l-.22099.7391c-.16925-.06396-.34823-.10591-.5388-.10591-.85536,0-.971.62215-1.09706,1.47751l-.11765.74721h1.20234l-.17314.98716h-1.20297l-.52332,4h-.82369l.52331-4Zm4.72112,1.31528l-1.46105-2.30245h1.08789l1.06601,1.79102,1.50182-1.79102h1.01183l-2.04611,2.30245,1.68448,2.68472h-1.09761l-1.27909-2.15265-1.85435,2.15265h-1.03309l2.41927-2.68472Zm7.66652-1.31528h-3.16412l-.88879,1h4.05292v2.84381l1,.75018V1H6.07574l-.29938,1h8.22363v2Zm-5,9H2v-4h-1v5h8v-1Zm1-6v9l6-4.49939-6-4.50061Z"/></svg>

<svg xmlns="http://www.w3.org/2000/svg" viewBox="0 0 16 16"><path stroke-width="0" fill="none" d="M0 0h16v16H0z"/><path d="M1.612 4H.537l.173-.987h1.076l.15-.927C2.105.883 2.645.028 3.973.028c.212 0 .466.043.612.127l-.22.739a1.515 1.515 0 0 0-.54-.106c-.855 0-.97.622-1.097 1.478l-.117.747h1.202L3.64 4H2.436l-.523 4h-.824l.523-4zm4.721 1.315l-1.46-2.302H5.96l1.066 1.79 1.502-1.79H9.54L7.494 5.315 9.178 8H8.081L6.8 5.847 4.948 8H3.914l2.42-2.685zM14 4h-3.164l-.889 1H14v2.844l1 .75V1H6.076l-.3 1H14v2zm-5 9H2V9H1v5h8v-1zm1-6v9l6-4.5L10 7z" stroke-width="0"/></svg>
